X: 94
T: No_31_I_Will_Pull_Out_Their_Feathers.krn
N: Derived from No_31_I_Will_Pull_Out_Their_Feathers.krn
%%abc-version 2.0
%%abcx-abcm2ps-target-version 5.9.1 (29 Sep 2008)
%%abc-creator hum2abc beta
%%abcx-conversion-date 2019/03/15 08:37:56
%%humdrum-veritas 3177713679
%%humdrum-veritas-data 814032730
%%linebreak <none>
%%barnumbers 0
L: 1/8
M: 2/4
K: C clef=bass
[K:clef=bass][M:2/4]C2C_D | 
C/C3/ C_D | 
C/C3/- CG, | 
_A,/G,3/ G,D, | 
G,G, G,D, ||  
[M:3/4]G,G,G,2G, z ||  
[M:2/4]G,G, G,D, ||  
[M:3/4]G,G,G,2G,D, ||  
[M:2/4]G,G, G, z | 
G,G, G,B, | 
A,G, A,G, | 
A,G, A, z |]  



